X: 1
T: Reinlendar etter Johannes
R: shottish
B: Folklore Village booklet
Z: John Chambers &lt;jc:trillian.mit.edu&gt;
M: C
L: 1/8
K: A
|: "A"c&gt;d ~cB c&gt;d ~cB |     c&gt;d ~cB    c2 A2 | c2 cA "E7"B2 EG |1 B2 Bd "A"c2 A2 :|2 "A"A2 A2 A4 |]
|: "A"c&gt;d  ef e2   ec | "E7"B2   Bd "A"c2 A2 | c2 cA "E7"B2 EG |1 B2 Bd "A"c2 A2 :|2 "A"A2 A2 A4 |]
P: D:
K: D
|: "D"F&gt;G ~FE F&gt;G ~FE |     F&gt;G ~FE    F2 D2 | F2 FD "A7"E2 A,C |1 E2 EG "D"F2 D2 :|2 "D"D2 D2 D4 |]
|: "D"F&gt;G  AB A2   AF | "A7"E2   EG "D"F2 D2 | F2 FD "A7"E2 A,C |1 E2 EG "D"F2 D2 :|2 "D"D2 D2 D4 |]

